src/lib/packages/icons/src/assets/filled/caret-up-square.svg

<svg width="24" height="24" viewBox="0 0 24 24" fill="none" xmlns="http://www.w3.org/2000/svg">
<path d="M17.625 3H6.375C4.125 3 3 4.125 3 6.375V17.625C3 19.875 4.125 21 6.375 21H17.625C19.875 21 21 19.875 21 17.625V6.375C21 4.125 19.875 3 17.625 3ZM15.0991 14.167H8.90088C8.13688 14.167 7.72091 13.281 8.21191 12.699L11.1321 9.23706C11.5851 8.70006 12.4149 8.70006 12.8679 9.23706L15.7881 12.699C16.2791 13.28 15.8631 14.167 15.0991 14.167Z" fill="currentColor"/>
</svg>

<svg xmlns="http://www.w3.org/2000/svg" width="24" height="24" fill="none"><path fill="currentColor" d="M17.625 3H6.375C4.125 3 3 4.125 3 6.375v11.25C3 19.875 4.125 21 6.375 21h11.25C19.875 21 21 19.875 21 17.625V6.375C21 4.125 19.875 3 17.625 3Zm-2.526 11.167H8.901c-.764 0-1.18-.886-.69-1.468l2.921-3.462a1.137 1.137 0 0 1 1.736 0l2.92 3.462c.491.581.075 1.468-.689 1.468Z"/></svg>
